img/vk.svg

<svg width="50" height="50" viewBox="0 0 50 50" fill="none" xmlns="http://www.w3.org/2000/svg">
<path d="M25.0001 1C11.7451 1 1.00012 11.745 1.00012 25C1.00012 38.255 11.7451 49 25.0001 49C38.2551 49 49.0001 38.255 49.0001 25C49.0001 11.745 38.2551 1 25.0001 1ZM34.2301 28.0775C34.2301 28.0775 36.3526 30.1725 36.8751 31.145C36.8901 31.165 36.8976 31.185 36.9026 31.195C37.1151 31.5525 37.1651 31.83 37.0601 32.0375C36.8851 32.3825 36.2851 32.5525 36.0801 32.5675H32.3301C32.0701 32.5675 31.5251 32.5 30.8651 32.045C30.3576 31.69 29.8576 31.1075 29.3701 30.54C28.6426 29.695 28.0126 28.965 27.3776 28.965C27.297 28.9649 27.2168 28.9775 27.1401 29.0025C26.6601 29.1575 26.0451 29.8425 26.0451 31.6675C26.0451 32.2375 25.5951 32.565 25.2776 32.565H23.5601C22.9751 32.565 19.9276 32.36 17.2276 29.5125C13.9226 26.025 10.9476 19.03 10.9226 18.965C10.7351 18.5125 11.1226 18.27 11.5451 18.27H15.3326C15.8376 18.27 16.0026 18.5775 16.1176 18.85C16.2526 19.1675 16.7476 20.43 17.5601 21.85C18.8776 24.165 19.6851 25.105 20.3326 25.105C20.454 25.1036 20.5733 25.0727 20.6801 25.015C21.5251 24.545 21.3676 21.5325 21.3301 20.9075C21.3301 20.79 21.3276 19.56 20.8951 18.97C20.5851 18.5425 20.0576 18.38 19.7376 18.32C19.8671 18.1413 20.0378 17.9964 20.2351 17.8975C20.8151 17.6075 21.8601 17.565 22.8976 17.565H23.4751C24.6001 17.58 24.8901 17.6525 25.2976 17.755C26.1226 17.9525 26.1401 18.485 26.0676 20.3075C26.0451 20.825 26.0226 21.41 26.0226 22.1C26.0226 22.25 26.0151 22.41 26.0151 22.58C25.9901 23.5075 25.9601 24.56 26.6151 24.9925C26.7006 25.0461 26.7993 25.0746 26.9001 25.075C27.1276 25.075 27.8126 25.075 29.6676 21.8925C30.2397 20.8681 30.7369 19.8037 31.1551 18.7075C31.1926 18.6425 31.3026 18.4425 31.4326 18.365C31.5286 18.3161 31.6349 18.2912 31.7426 18.2925H36.1951C36.6801 18.2925 37.0126 18.365 37.0751 18.5525C37.1851 18.85 37.0551 19.7575 35.0226 22.51L34.1151 23.7075C32.2726 26.1225 32.2726 26.245 34.2301 28.0775Z" fill="white"/>
</svg>

<svg width="50" height="50" fill="none" xmlns="http://www.w3.org/2000/svg"><path d="M25 1C11.745 1 1 11.745 1 25s10.745 24 24 24 24-10.745 24-24S38.255 1 25 1Zm9.23 27.078s2.123 2.095 2.645 3.067c.015.02.023.04.028.05.212.357.262.635.157.843-.175.345-.775.515-.98.53h-3.75c-.26 0-.805-.068-1.465-.523-.507-.355-1.007-.938-1.495-1.505-.727-.845-1.357-1.575-1.992-1.575-.081 0-.161.012-.238.038-.48.154-1.095.84-1.095 2.665 0 .57-.45.897-.767.897H23.56c-.585 0-3.632-.205-6.332-3.052-3.305-3.488-6.28-10.483-6.305-10.548-.188-.453.2-.695.622-.695h3.788c.505 0 .67.308.785.58.135.317.63 1.58 1.442 3 1.318 2.315 2.125 3.255 2.773 3.255a.75.75 0 0 0 .347-.09c.845-.47.688-3.483.65-4.108 0-.117-.002-1.347-.435-1.937-.31-.427-.837-.59-1.157-.65.13-.179.3-.324.497-.422.58-.29 1.625-.333 2.663-.333h.577c1.125.015 1.415.087 1.823.19.825.198.842.73.77 2.553a39.754 39.754 0 0 0-.045 1.792c0 .15-.008.31-.008.48-.025.928-.055 1.98.6 2.413a.54.54 0 0 0 .285.082c.228 0 .913 0 2.768-3.183a24.286 24.286 0 0 0 1.487-3.184c.038-.066.148-.265.278-.343a.665.665 0 0 1 .31-.072h4.452c.485 0 .818.072.88.26.11.297-.02 1.204-2.052 3.957l-.908 1.197c-1.842 2.415-1.842 2.538.115 4.37Z" fill="#fff"/></svg>
